X:1
T:Title
%%score { ( 1 3 ) | ( 2 4 ) }
L:1/8
M:4/4
K:Bb
V:1 treble nm="Grand Piano"
V:3 treble 
V:2 bass 
V:4 bass 
V:1
 z4 z2[Q:1/4=100] F2 | [Fd]3 [Ec] [DB]2 [DF]2 | [DF]3[K:bass] [B,E] [B,D]4 | %3
 [A,C][A,C][A,C][A,C] [F,A,F]2 [F,CE]2 |[M:3/4] [F,B,D]6 |[M:1/4][K:treble] F2 | %6
[M:4/4] [Fd]3 [Ec] [DB]2 [DF]2 | [DF]3 [CE][K:bass] [B,D]4 | %8
 [F,A,C][K:treble][A,CF][A,CF][B,CG] [CFA]2 [B,CG]2 | [A,F]8 | %10
 [B,DF][B,DF][K:bass][F,B,D][F,CE][K:treble] [DF]2 F2 | [B,GB][B,GB][B,EG][B,FA] [B,GB]4 | %12
 [Fd][Fd][Fd][Fd] [FB]2 [Fd]2 | [Fc]6 z2 | [DF][DF][K:bass][F,B,D][F,CE][K:treble] [DF]2 F2 | %15
 [B,GB][B,GB][B,EG][A,EA] [EB]4 | [Gc][Gc][Gd][Gd] [Ge]2 [EA]2 |[M:3/4] [DB]6 |] %18
V:2
 z4 z2 D2 | B,,D,F,A, B,F,D,B,, | F,,G,,A,,F,, B,,2 D,B,, | F,F,F,F, F,,2 F,,2 |[M:3/4] B,,6 | %5
[M:1/4] D2 |[M:4/4] B,,D,F,A, B,F,D,B,, | F,,G,,A,,F,, B,,2 D,B,, | C,C,C,C, C,2 C,2 | z4 E4 | %10
 B,,B,,B,,B,, B,,2 D,2 | E,E,E,E, E,4 | [B,,B,][B,,B,][B,,B,][B,,B,] [D,B,]2 [B,,B,]2 | %13
 [F,A,]6 z2 | [B,,B,][B,,B,]B,,B,, B,,2 D,2 | E,E,E,E, [E,G,]4 | %16
 [E,G,][E,G,][D,=B,][D,B,] [C,C]2 [F,C]F, |[M:3/4] [B,,F,]6 |] %18
V:3
 x8 | x8 | x3[K:bass] x5 | x8 |[M:3/4] x6 |[M:1/4][K:treble] x2 |[M:4/4] x8 | x4[K:bass] x4 | %8
 x[K:treble] x7 | C4 z4 | z4[K:bass][K:treble] B,4 | x8 | x8 | x8 | z4[K:bass][K:treble] B,4 | x8 | %16
 x8 |[M:3/4] x6 |] %18
V:4
 x8 | x8 | x8 | x8 |[M:3/4] x6 |[M:1/4] x2 |[M:4/4] x8 | x8 | x8 | F,8 | x8 | x8 | x8 | x8 | x8 | %15
 x8 | x8 |[M:3/4] x6 |] %18

